X: 133026
Q: "Scotch Jig."
M: 6/8
L: 1/8
K: Am
uB |\
vc2uA- AcA | vE2vA uA2uc | B2G- GBc | dBG GAB |\
c2A- AcA | E2A A2g | edc BAG | E2A A2 :|\
uE |\
vA2vB uc2ud | e2^f g2e | ^faf g2e | dBG GAB |
uE |\
vA2vB uc2ud | e2^f g2e | ^faf g2e | dBG GAB |\
c2c- cBA | Bcd e^fg | edc BAG | E2A A2 |]


